!!!!SEGMENT: Snf0307-Genuit_puerpera.krn
!!!id: Snf0307
!!!AGN: Motet
!!!voices: 5
!!!COM: Ludwig Senfl
!!!OTL: Genuit puerpera
**kern	**text	**kern	**text	**kern	**text	**kern	**text	**kern	**text
*part5	*part5	*part4	*part4	*part3	*part3	*part2	*part2	*part1	*part1
*staff5	*staff5	*staff4	*staff4	*staff3	*staff3	*staff2	*staff2	*staff1	*staff1
*I"Bassus	*	*I"Tenor II	*	*I"Tenor I	*	*I"Altus	*	*I"Superius	*
*I'B	*	*I'T. II	*	*I'T. I	*	*I'A	*	*I'S	*
*clefF4	*	*clefGv2	*	*clefGv2	*	*clefG2	*	*clefG2	*
*k[b-]	*	*k[b-]	*	*k[b-]	*	*k[b-]	*	*k[b-]	*
*F:	*	*F:	*	*F:	*	*F:	*	*F:	*
*M2/1	*	*M2/1	*	*M2/1	*	*M2/1	*	*M2/1	*
*met(C2)	*	*met(C2)	*	*met(C2)	*	*met(C2)	*	*met(C2)	*
!!section: Prima pars: Genuit puerpera
!!!OMD: Prima pars: Genuit puerpera
=1	=1	=1	=1	=1	=1	=1	=1	=1	=1
!	!	!LO:TX:a:t=Canon&colon; tenor II/altus at the fifth	!	!	!	!	!	!	!
0r	.	0r	.	1.B-y	Ge-	0r	.	0r	.
.	.	.	.	2B-y	-nu-	.	.	.	.
=2	=2	=2	=2	=2	=2	=2	=2	=2	=2
0r	.	0r	.	2.B-y	-it	0r	.	1.b-y	Ge-
.	.	.	.	4c	.	.	.	.	.
.	.	.	.	2d	.	.	.	.	.
.	.	.	.	[2e-X	pu-	.	.	2b-y	-nu-
=3	=3	=3	=3	=3	=3	=3	=3	=3	=3
0r	.	0r	.	4e-]	.	0r	.	1b-y	-it
.	.	.	.	4d	.	.	.	.	.
.	.	.	.	2B-y	.	.	.	.	.
.	.	.	.	2.c	-er-	.	.	1g	pu-
.	.	.	.	4B-y	-pe-	.	.	.	.
=4	=4	=4	=4	=4	=4	=4	=4	=4	=4
0r	.	0r	.	2G	-ra,	0r	.	1b-y	-er-
.	.	.	.	2B-y	pu-	.	.	.	.
.	.	.	.	2c	-er-	.	.	1g	-pe-
.	.	.	.	2e-i	-pe-	.	.	.	.
=5	=5	=5	=5	=5	=5	=5	=5	=5	=5
1.B-y	Ge-	0r	.	[0d	-ra,	0r	.	1f	-ra,
.	.	.	.	.	.	.	.	2r	.
2B-y	-nu-	.	.	.	.	.	.	[2b-y	ge-
=6	=6	=6	=6	=6	=6	=6	=6	=6	=6
1B-y	-it	0r	.	0d]	.	0r	.	4b-]	.
.	.	.	.	.	.	.	.	4a	.
.	.	.	.	.	.	.	.	2f	.
1G	pu-	.	.	.	.	.	.	2.g	-nu-
.	.	.	.	.	.	.	.	4f	.
=7	=7	=7	=7	=7	=7	=7	=7	=7	=7
1B-y	-er-	0r	.	1r	.	0r	.	2d	.
.	.	.	.	.	.	.	.	2f	-it
1G	-pe-	.	.	1d	pu-	.	.	2g	pu-
.	.	.	.	.	.	.	.	2b-y	.
=8	=8	=8	=8	=8	=8	=8	=8	=8	=8
1F	-ra,	0r	.	1f	-er-	0r	.	2a	.
.	.	.	.	.	.	.	.	1cc	.
1r	.	.	.	1d	-pe-	.	.	.	.
.	.	.	.	.	.	.	.	2bnXi	.
=9	=9	=9	=9	=9	=9	=9	=9	=9	=9
1.F	ge-	0r	.	1c	-ra,	0r	.	1.cc	-er-
.	.	.	.	2r	.	.	.	.	.
2F	-nu-	.	.	[2f	pu-	.	.	2a	-pe-
=10	=10	=10	=10	=10	=10	=10	=10	=10	=10
1F	-it	0r	.	4f]	.	0r	.	1a	-ra,
.	.	.	.	4e	.	.	.	.	.
.	.	.	.	2c	.	.	.	.	.
1D	pu-	.	.	2.d	-er-	.	.	2r	.
.	.	.	.	.	.	.	.	[2f	ge-
.	.	.	.	4c	-pe-	.	.	.	.
=11	=11	=11	=11	=11	=11	=11	=11	=11	=11
1F	-er-	0r	.	2A	-ra,	0r	.	4f]	.
.	.	.	.	.	.	.	.	4e	.
.	.	.	.	1c	pu-	.	.	2c	.
1D	-pe-	.	.	.	.	.	.	2d	-nu-
.	.	.	.	2BnXi	.	.	.	2f	-it
=12	=12	=12	=12	=12	=12	=12	=12	=12	=12
1C	-ra,	0r	.	2c	-er-	0r	.	2e	pu-
.	.	.	.	2A	-pe-	.	.	2c	.
1r	.	.	.	1G	-ra,	.	.	2d	.
.	.	.	.	.	.	.	.	2e	.
=13	=13	=13	=13	=13	=13	=13	=13	=13	=13
1.BB-y	[ge-	0r	.	2r	.	0r	.	1.f	-er-
.	.	.	.	1d	pu-	.	.	.	.
2BB-y	-nu-	.	.	[2B-y	-er-	.	.	2d	-pe-
=14	=14	=14	=14	=14	=14	=14	=14	=14	=14
1BB-y	-it	1.B-y	Ge-	4B-]	.	0r	.	1d	-ra,
.	.	.	.	4A	.	.	.	.	.
.	.	.	.	2F	.	.	.	.	.
1GG	pu-	.	.	2.G	.	.	.	1r	.
.	.	2B-y	-nu-	.	.	.	.	.	.
.	.	.	.	4F	.	.	.	.	.
=15	=15	=15	=15	=15	=15	=15	=15	=15	=15
1BB-y	-er-	0B-y	-it	2D	.	0r	.	2r	.
.	.	.	.	1F	.	.	.	2f	pu-
1GG	-pe-	.	.	.	.	.	.	2g	.
.	.	.	.	2E	-pe-	.	.	2b-y	.
=16	=16	=16	=16	=16	=16	=16	=16	=16	=16
1FF	-ra,]	0r	.	2.F	-ra,	1.f	Ge-	1.a	-er-
.	.	.	.	4G	.	.	.	.	.
[1F	ge-	.	.	4A	.	.	.	.	.
.	.	.	.	4G	.	.	.	.	.
.	.	.	.	4A	.	2f	-nu-	2a	-pe-
.	.	.	.	4B-y	.	.	.	.	.
=17	=17	=17	=17	=17	=17	=17	=17	=17	=17
2F]	.	0r	.	2c	.	0f	-it	1a	-ra,
2F	-nu-	.	.	2d	pu-	.	.	.	.
2F	-it	.	.	2c	-er-	.	.	2r	.
2D	pu-	.	.	2d	-pe-	.	.	[2a	ge-
=18	=18	=18	=18	=18	=18	=18	=18	=18	=18
2F	-er-	1r	.	2A	-ra,	0r	.	2a]	.
2D	-pe-	.	.	2B-y	[pu-	.	.	4g	.
.	.	.	.	.	.	.	.	4f	.
1C	-ra,	1G	pu-	1c	-er-	.	.	1e	.
=19	=19	=19	=19	=19	=19	=19	=19	=19	=19
1r	.	0B-y	-er-	2d	-pe-	0r	.	2d	-nu-
.	.	.	.	1f	-ra,]	.	.	1dd	-it
1BB-y	pu-	.	.	.	.	.	.	.	.
.	.	.	.	4e	.	.	.	2dd	pu-
.	.	.	.	4d	.	.	.	.	.
=20	=20	=20	=20	=20	=20	=20	=20	=20	=20
2.C	-er-	0G	-pe-	1e	.	1r	.	1cc	-er-
4BB-y	.	.	.	.	.	.	.	.	.
4GG	.	.	.	1r	.	1d	pu-	1b-y	-pe-
4AA	.	.	.	.	.	.	.	.	.
4BB-y	.	.	.	.	.	.	.	.	.
4C	.	.	.	.	.	.	.	.	.
=21	=21	=21	=21	=21	=21	=21	=21	=21	=21
2D	.	0F	-ra	2r	.	0f	-er-	2a	-ra
2.BB-y	-pe-	.	.	2d	pu-	.	.	2.dd	Re-
.	.	.	.	2d	-er-	.	.	.	.
4C	.	.	.	.	.	.	.	4cc	.
2D	.	.	.	2d	-pe-	.	.	2a	.
=22	=22	=22	=22	=22	=22	=22	=22	=22	=22
1GG	-ra	1G	Re-	1B-y	-ra,	0d	-pe-	1.b-y	.
1G	.	[1B-y	.	2r	.	.	.	.	.
.	.	.	.	2d	[pu-	.	.	2g	.
=23	=23	=23	=23	=23	=23	=23	=23	=23	=23
1E-X	Re-	2B-]	.	1e-X	-er-	0c	-ra	1g	-gem,
.	.	4A	.	.	.	.	.	.	.
.	.	4G	.	.	.	.	.	.	.
1F	.	1A	.	1c	.	.	.	[1f	Re-
=24	=24	=24	=24	=24	=24	=24	=24	=24	=24
0BB-y	.	0B-y	.	2B-y	.	1d	Re-	2f]	.
.	.	.	.	2.f	-pe-	.	.	2d	.
.	.	.	.	.	.	[1f	.	1d	-gem,
.	.	.	.	4e	.	.	.	.	.
.	.	.	.	2d	.	.	.	.	.
=25	=25	=25	=25	=25	=25	=25	=25	=25	=25
0C	.	0G	-gem,	1c	-ra]	2f]	.	0r	.
.	.	.	.	.	.	4e	.	.	.
.	.	.	.	.	.	4d	.	.	.
.	.	.	.	2r	.	1e	.	.	.
.	.	.	.	2c	Re-	.	.	.	.
=26	=26	=26	=26	=26	=26	=26	=26	=26	=26
0D	.	0r	.	2A	.	0f	.	2r	.
.	.	.	.	1.d	.	.	.	2a	pu-
.	.	.	.	.	.	.	.	2a	-er-
.	.	.	.	.	.	.	.	2a	-pe-
=27	=27	=27	=27	=27	=27	=27	=27	=27	=27
1GG	-gem,	1.G	cu-	1B-y	-gem,	0d	-gem,	1b-y	-ra
2r	.	.	.	2r	.	.	.	2r	.
2GG	cu-	2G	-i	2B-y	cu-	.	.	[2b-y	Re-
=28	=28	=28	=28	=28	=28	=28	=28	=28	=28
2BB-y	.	1G	no-	2d	-i	0r	.	2b-]	.
2C	-i	.	.	2e	.	.	.	2g	-gem,
1AA	no-	1F	.	1c	no-	.	.	1a	cu-
=29	=29	=29	=29	=29	=29	=29	=29	=29	=29
1GG	-men,	0G	-men	1B-y	-men,	1.d	cu-	2.b-y	-i
.	.	.	.	.	.	.	.	4cc	.
2r	.	.	.	2r	.	.	.	2dd	.
[2G	cu-	.	.	[2B-y	[cu-	2d	-i	[2b-y	no-
=30	=30	=30	=30	=30	=30	=30	=30	=30	=30
4G]	.	0r	.	2B-]	.	1d	no-	4b-]	.
4F	.	.	.	.	.	.	.	4a	.
2D	.	.	.	2A	-i	.	.	2f	.
2E	-i	.	.	2G	no-	1c	.	2g	.
2F	no-	.	.	2F	.	.	.	2a	.
=31	=31	=31	=31	=31	=31	=31	=31	=31	=31
1BB-y	-men	1B-y	ae-	1F	-men]	0d	-men	1f	-men
2r	.	2G	-ter-	2r	.	.	.	2r	.
[2BB-y	ae-	[2B-y	.	[2f	ae-	.	.	[2d	ae-
=32	=32	=32	=32	=32	=32	=32	=32	=32	=32
4BB-]	.	4B-]	.	2f]	.	0r	.	4d]	.
4C	.	4A	.	.	.	.	.	4e	.
2D	.	4G	.	2B-y	.	.	.	1f	-ter-
.	.	4F	.	.	.	.	.	.	.
1C	-ter-	1G	.	1c	-ter-	.	.	.	.
.	.	.	.	.	.	.	.	2e	-num,
=33	=33	=33	=33	=33	=33	=33	=33	=33	=33
0D	-num,	0F	-num,	2A	-num,	1f	ae-	2f	.
.	.	.	.	2B-y	[ae-	.	.	2d	.
.	.	.	.	2A	.	2d	-ter-	2r	.
.	.	.	.	[2F	.	[2f	.	[2a	ae-
=34	=34	=34	=34	=34	=34	=34	=34	=34	=34
0r	.	0r	.	4F]	.	4f]	.	4a]	.
.	.	.	.	4G	.	4e	.	4b-y	.
.	.	.	.	2A	.	4d	.	1cc	-ter-
.	.	.	.	.	.	4c	.	.	.
.	.	.	.	1G	-ter-	1d	.	.	.
.	.	.	.	.	.	.	.	2bnXi	.
=35	=35	=35	=35	=35	=35	=35	=35	=35	=35
1r	.	0r	.	1A	-num,]	0c	-num,	1cc	-num,
1F	et	.	.	2r	.	.	.	2r	.
.	.	.	.	2A	et	.	.	[2c	ae-
=36	=36	=36	=36	=36	=36	=36	=36	=36	=36
2E	.	1G	et	2G	gau-	0r	.	4c]	.
.	.	.	.	.	.	.	.	4d	.
2C	.	.	.	1c	.	.	.	2e	.
1D	.	1F	gau-	.	.	.	.	1f	-ter-
.	.	.	.	2BnXi	-di-	.	.	.	.
=37	=37	=37	=37	=37	=37	=37	=37	=37	=37
1.C	gau-	1.G	.	1c	-um,	0r	.	1e	-num,
.	.	.	.	2r	.	.	.	2r	.
2C	-di-	2G	-di-	2c	[et	.	.	2e	et
=38	=38	=38	=38	=38	=38	=38	=38	=38	=38
1GG	-um	1G	-um	2B-y	gau-	1d	et	2d	gau-
.	.	.	.	2G	.	.	.	1g	.
1r	.	1r	.	1A	-di-	1c	gau-	.	.
.	.	.	.	.	.	.	.	2f#i	-di-
=39	=39	=39	=39	=39	=39	=39	=39	=39	=39
1r	.	0B-y	ma-	1G	-um]	1.d	.	1g	-um
2r	.	.	.	2.G	ma-	.	.	2r	.
[2GG	ma-	.	.	.	.	2d	-di-	[2g	ma-
.	.	.	.	4A	.	.	.	.	.
=40	=40	=40	=40	=40	=40	=40	=40	=40	=40
4GG]	.	0G	-tris	4B-y	.	1d	-um	4g]	.
4AA	.	.	.	4c	.	.	.	4f	.
2BB-y	.	.	.	1d	.	.	.	2d	.
1C	.	.	.	.	.	1r	.	1e	.
.	.	.	.	2c	.	.	.	.	.
=41	=41	=41	=41	=41	=41	=41	=41	=41	=41
1BB-y	-tris	0r	.	2d	.	0f	ma-	1d	-tris
.	.	.	.	1B-y	-tris	.	.	.	.
2r	.	.	.	.	.	.	.	2r	.
[2D	ha-	.	.	2A	ha-	.	.	[2dd	ha-
=42	=42	=42	=42	=42	=42	=42	=42	=42	=42
4D]	.	1r	.	2F	-bens,	0d	-tris	4dd]	.
4E	.	.	.	.	.	.	.	4cc	.
2F	.	.	.	2f	et	.	.	2a	.
1G	.	1B-y	ha-	2.d	gau-	.	.	1b-y	.
.	.	.	.	4e	-di-	.	.	.	.
=43	=43	=43	=43	=43	=43	=43	=43	=43	=43
2F	.	2c	.	2f	-um	0r	.	2a	.
2D	.	1d	.	2B-y	ma-	.	.	2f	.
1E	.	.	.	2.G	-tris	.	.	1g	.
.	.	2c#i	.	.	.	.	.	.	.
.	.	.	.	4A	.	.	.	.	.
=44	=44	=44	=44	=44	=44	=44	=44	=44	=44
0D	-bens,	1.d	-bens,	2B-y	.	1r	.	2.f	.
.	.	.	.	2A	ha-	.	.	.	.
.	.	.	.	.	.	.	.	4g	.
.	.	.	.	1d	-bens,	1f	ha-	4a	.
.	.	.	.	.	.	.	.	4g	.
.	.	2f	[ha-	.	.	.	.	4a	.
.	.	.	.	.	.	.	.	4b-y	.
=45	=45	=45	=45	=45	=45	=45	=45	=45	=45
0r	.	2e	.	1r	.	2g	.	2cc	.
.	.	2d	.	.	.	1a	.	1dd	.
.	.	1e	.	2r	.	.	.	.	.
.	.	.	.	2c	ha-	2g	.	2cc	.
=46	=46	=46	=46	=46	=46	=46	=46	=46	=46
2.D	ha-	1d	-bens]	1.f	.	1.a	.	1dd	-bens
4E	.	.	.	.	.	.	.	.	.
4F	.	1r	.	.	.	.	.	2cc	cum
4G	.	.	.	.	.	.	.	.	.
2A	.	.	.	2c	.	2cc	.	2f	vir-
=47	=47	=47	=47	=47	=47	=47	=47	=47	=47
2G	.	1r	.	1d	.	2b-y	.	2g	-gi-
2F	.	.	.	.	.	2a	.	1a	-ni-
1G	.	1d	cum	1B-y	.	1b-y	.	.	.
.	.	.	.	.	.	.	.	2g	-ta-
=48	=48	=48	=48	=48	=48	=48	=48	=48	=48
2D	-bens	2d	vir-	0f	.	1a	-bens	2.a	.
1F	cum	1c	-gi-	.	.	.	.	.	.
.	.	.	.	.	.	.	.	4b-y	.
.	.	.	.	.	.	1r	.	2cc	.
[2BB-y	.	2B-y	-ni-	.	.	.	.	[2dd	.
=49	=49	=49	=49	=49	=49	=49	=49	=49	=49
2BB-]	.	1B-y	-ta-	1f	-bens	1r	.	2dd]	.
2B-y	vir-	.	.	.	.	.	.	2d	-tis
1A	-gi-	1c	-tis	2r	.	1a	cum	1e	pu-
.	.	.	.	[2c	cum	.	.	.	.
=50	=50	=50	=50	=50	=50	=50	=50	=50	=50
2F	-ni-	0r	.	2c]	.	2a	vir-	2f	-do-
2G	-ta-	.	.	2B-y	vir-	1g	-gi-	2d	.
2E	.	.	.	4c	.	.	.	2e	.
.	.	.	.	4B-y	.	.	.	.	.
2F	-tis	.	.	4A	.	2f	-ni-	2c	.
.	.	.	.	4G	.	.	.	.	.
=51	=51	=51	=51	=51	=51	=51	=51	=51	=51
1D	pu-	1A	pu-	1A	.	1f	-ta-	0d	-re,
[1G	.	[1B-y	-do-	2.G	.	1g	-tis	.	.
.	.	.	.	4A	.	.	.	.	.
=52	=52	=52	=52	=52	=52	=52	=52	=52	=52
2G]	.	2B-]	.	2B-y	.	0r	.	0r	.
2F	.	2A	.	1c	-gi-	.	.	.	.
2E	.	2G	.	.	.	.	.	.	.
2D	.	2F	.	2BnXi	-ni-	.	.	.	.
=53	=53	=53	=53	=53	=53	=53	=53	=53	=53
1C	-do-	1G	.	1c	-ta-	1e	pu-	1g	pu-
2.F	.	1F	-re:	1A	-tis	[1f	-do-	1a	-do-
4E	.	.	.	.	.	.	.	.	.
=54	=54	=54	=54	=54	=54	=54	=54	=54	=54
2D	.	0r	.	2r	.	2f]	.	2f	.
2C	.	.	.	2c	pu-	2e	.	2a	.
2BB-y	.	.	.	2d	-do-	2d	.	2b-y	.
2AA	.	.	.	2e	.	2c	.	2cc	.
=55	=55	=55	=55	=55	=55	=55	=55	=55	=55
1BB-y	-re:	0r	.	2d	-re:	1d	.	2f	.
.	.	.	.	2f	nec	.	.	1b-y	.
1F	.	.	.	2f	pri-	1c	-re:	.	.
.	.	.	.	2f	-mam	.	.	2a	.
=56	=56	=56	=56	=56	=56	=56	=56	=56	=56
1G	.	0B-y	nec	2d	si-	0r	.	1b-y	-re:
.	.	.	.	2d	-mi-	.	.	.	.
2r	.	.	.	[1d	-lem	.	.	2r	.
2G	nec	.	.	.	.	.	.	2b-y	nec
=57	=57	=57	=57	=57	=57	=57	=57	=57	=57
2.G	pri-	0B-y	pri-	1d]	.	0r	.	2.b-y	pri-
4F	.	.	.	.	.	.	.	4a	-mam
2E-X	.	.	.	1r	.	.	.	2g	si-
2D	.	.	.	.	.	.	.	2f	-mi-
=58	=58	=58	=58	=58	=58	=58	=58	=58	=58
[0BB-y	-mam	0B-y	-mam	2r	.	0f	nec	1d	-lem,
.	.	.	.	2.d	vi-	.	.	.	.
.	.	.	.	.	.	.	.	2r	.
.	.	.	.	4c	.	.	.	.	.
.	.	.	.	4B-y	.	.	.	[2dd	si-
.	.	.	.	4A	.	.	.	.	.
=59	=59	=59	=59	=59	=59	=59	=59	=59	=59
1BB-]	.	0r	.	2B-y	.	0f	pri-	4dd]	.
.	.	.	.	.	.	.	.	4cc	.
.	.	.	.	2d	.	.	.	1b-y	.
1F	.	.	.	1c	-sa	.	.	.	.
.	.	.	.	.	.	.	.	2a	-mi-
=60	=60	=60	=60	=60	=60	=60	=60	=60	=60
2.BB-y	si-	1B-y	si-	1d	est,	0f	-mam	2b-y	-lem
.	.	.	.	.	.	.	.	2.dd	vi-
4C	-mi-	.	.	.	.	.	.	.	.
1D	-lem	1A	-mi-	2r	.	.	.	.	.
.	.	.	.	.	.	.	.	4cc	.
.	.	.	.	2d	[vi-	.	.	2a	.
=61	=61	=61	=61	=61	=61	=61	=61	=61	=61
2.GG	vi-	0G	-lem	2B-y	.	0r	.	2.b-y	.
.	.	.	.	1d	.	.	.	.	.
4AA	.	.	.	.	.	.	.	4a	.
2BB-y	.	.	.	.	.	.	.	4g	.
.	.	.	.	.	.	.	.	4f	.
2C	.	.	.	2c	-sa	.	.	2e	.
=62	=62	=62	=62	=62	=62	=62	=62	=62	=62
2D	.	0r	.	2F	est,]	1f	si-	2d	.
2BB-y	.	.	.	1B-y	vi-	.	.	2dd	.
1C	-sa	.	.	.	.	1e	-mi-	1cc	-sa
.	.	.	.	2A	-sa	.	.	.	.
=63	=63	=63	=63	=63	=63	=63	=63	=63	=63
1BB-y	est,	0B-y	vi-	2B-y	est,	0d	-lem	1f	est,
.	.	.	.	2.f	[vi-	.	.	.	.
2r	.	.	.	.	.	.	.	2r	.
.	.	.	.	4e	.	.	.	.	.
2BB-y	vi-	.	.	2d	.	.	.	2f	vi-
=64	=64	=64	=64	=64	=64	=64	=64	=64	=64
2C	.	0G	.	2c	.	0r	.	2e	.
2BB-y	.	.	.	2d	.	.	.	1d	.
1E-X	.	.	.	2B-y	.	.	.	.	.
.	.	.	.	2G	-sa	.	.	2c	-sa
=65	=65	=65	=65	=65	=65	=65	=65	=65	=65
0D	-sa	0F	-sa	1A	est,]	0f	vi-	1d	est,
.	.	.	.	2r	.	.	.	2r	.
.	.	.	.	2A	vi-	.	.	2dd	nec
=66	=66	=66	=66	=66	=66	=66	=66	=66	=66
0GG	est,	0G	.	1B-y	-sa	0d	.	4dd	ha-
.	.	.	.	.	.	.	.	4cc	.
.	.	.	.	.	.	.	.	4b-y	.
.	.	.	.	.	.	.	.	4a	.
.	.	.	.	2G	est,	.	.	1b-y	.
.	.	.	.	2d	[vi-	.	.	.	.
=67	=67	=67	=67	=67	=67	=67	=67	=67	=67
1C	nec	1G	est,	2.e	.	0c	-sa	2.cc	-be-
.	.	.	.	4d	.	.	.	4b-y	.
1FF	ha-	1r	.	2c	.	.	.	2.a	.
.	.	.	.	2A	-sa	.	.	.	.
.	.	.	.	.	.	.	.	4g	.
=68	=68	=68	=68	=68	=68	=68	=68	=68	=68
1BB-y	-be-	1r	.	1B-y	est,]	0d	.	2f	-re
.	.	.	.	.	.	.	.	2f	se-
1GG	-re	[1G	nec	2r	.	.	.	[1b-y	-quen-
.	.	.	.	2B-y	nec	.	.	.	.
=69	=69	=69	=69	=69	=69	=69	=69	=69	=69
2r	.	1G]	.	2B-y	ha-	1d	est,	1b-]	.
2GG	se-	.	.	1d	-be-	.	.	.	.
2BB-y	-quen-	1G	ha-	.	.	1r	.	1g	-tem,
2C	.	.	.	2e	-re	.	.	.	.
=70	=70	=70	=70	=70	=70	=70	=70	=70	=70
2.D	.	0F	-be-	2f	se-	1r	.	1r	.
.	.	.	.	2.f	-quen-	.	.	.	.
4C	.	.	.	.	.	.	.	.	.
2.BB-y	.	.	.	.	.	[1d	nec	[1b-y	se-
.	.	.	.	4e	.	.	.	.	.
.	.	.	.	4d	.	.	.	.	.
4AA	.	.	.	4c	.	.	.	.	.
=71	=71	=71	=71	=71	=71	=71	=71	=71	=71
0GG	-tem,	0G	-re	2.B-y	.	1d]	.	2b-]	.
.	.	.	.	.	.	.	.	2b-y	-quen-
.	.	.	.	4c	.	.	.	.	.
.	.	.	.	4d	.	1d	ha-	2.b-y	-tem,
.	.	.	.	4c	.	.	.	.	.
.	.	.	.	4B-y	.	.	.	.	.
.	.	.	.	4A	.	.	.	4a	.
=72	=72	=72	=72	=72	=72	=72	=72	=72	=72
0C	.	0r	.	2G	.	0c	-be-	4g	.
.	.	.	.	.	.	.	.	4f	.
.	.	.	.	2A	.	.	.	4e	.
.	.	.	.	.	.	.	.	4d	.
.	.	.	.	1G	-tem,	.	.	1e	.
=73	=73	=73	=73	=73	=73	=73	=73	=73	=73
1GG	.	1B-y	se-	2r	.	0d	-re	2d	se-
.	.	.	.	1G	se-	.	.	2.g	-quen-
2r	.	2G	.	.	.	.	.	.	.
.	.	.	.	.	.	.	.	4f	.
2GG	se-	[2G	-quen-	[2B-y	-quen-	.	.	2g	.
=74	=74	=74	=74	=74	=74	=74	=74	=74	=74
1BB-y	-quen-	2G]	.	4B-]	.	0r	.	1d	-tem,
.	.	.	.	4c	.	.	.	.	.
.	.	2F	.	1d	.	.	.	.	.
1C	.	1E	-tem.	.	.	.	.	1r	.
.	.	.	.	2c	.	.	.	.	.
=75	=75	=75	=75	=75	=75	=75	=75	=75	=75
0BB-y	-tem.	1D	.	1d	-tem,	1f	se-	2r	.
.	.	.	.	.	.	.	.	1d	se-
.	.	1r	.	2r	.	2d	.	.	.
.	.	.	.	2D	[se-	[2d	-quen-	[2f	-quen-
=76	=76	=76	=76	=76	=76	=76	=76	=76	=76
1r	.	0r	.	1F	-quen-	2d]	.	4f]	.
.	.	.	.	.	.	.	.	4g	.
.	.	.	.	.	.	2c	.	1a	.
1GG	Al-	.	.	1G	.	1B-y	-tem.	.	.
.	.	.	.	.	.	.	.	2g	.
=77	=77	=77	=77	=77	=77	=77	=77	=77	=77
1.D	-le-	1r	.	1F	-tem.]	1A	.	2a	-tem.
.	.	.	.	.	.	.	.	1a	Al-
.	.	[1F	Al-	2r	.	1r	.	.	.
[2D	-lu-	.	.	[2f	Al-	.	.	4g	.
.	.	.	.	.	.	.	.	4f	.
=78	=78	=78	=78	=78	=78	=78	=78	=78	=78
2D]	.	1F]	.	2f]	.	0r	.	2.a	-le-
4C	.	.	.	4e	.	.	.	.	.
4BB-y	.	.	.	4d	.	.	.	4b-y	.
1AA	.	1F	-le-	1c	.	.	.	2cc	.
.	.	.	.	.	.	.	.	2a	.
=79	=79	=79	=79	=79	=79	=79	=79	=79	=79
1GG	-ia,	1G	.	2B-y	-le-	1r	.	4b-y	.
.	.	.	.	.	.	.	.	4a	.
.	.	.	.	2d	-lu-	.	.	4g	.
.	.	.	.	.	.	.	.	4f	.
1C	al-	1G	-lu-	2c	-ia,	[1c	Al-	4e	.
.	.	.	.	.	.	.	.	4c	.
.	.	.	.	[2e	[al-	.	.	[2cc	.
=80	=80	=80	=80	=80	=80	=80	=80	=80	=80
2C	-le-	[0Gl	-ia.	2e]	.	1c]	.	2cc]	.
1C	-lu-	.	.	4d	.	.	.	4b-y	.
.	.	.	.	4c	.	.	.	4a	.
.	.	.	.	2.e	-le-	1c	-le-	2.g	.
4BB-y	.	.	.	.	.	.	.	.	.
4AA	.	.	.	4f	.	.	.	4a	.
=81	=81	=81	=81	=81	=81	=81	=81	=81	=81
0GG	.	0G_	.	2.g	.	1d	.	1.b-y	.
.	.	.	.	8fL	.	.	.	.	.
.	.	.	.	8eJ	.	.	.	.	.
.	.	.	.	2d	.	1d	-lu-	.	.
.	.	.	.	2B-y	-lu-	.	.	2g	-lu-
=82	=82	=82	=82	=82	=82	=82	=82	=82	=82
00GGl	-ia.	00G]	.	00B-yl	-ia.]	00dl	-ia.	00gl	-ia.
==	==	==	==	==	==	==	==	==	==
*-	*-	*-	*-	*-	*-	*-	*-	*-	*-
!!!system-decoration: [*]
!!!RDF**kern: i = editorial accidental
!!!RDF**kern: l = terminal long
!!!!PTL: <i> New Senfl Edition: Motets for Five Voices</i>
!!!PPR: Hollitzer Verlag
!!!PC#: Denkmäler der Tonkunst in Österreich 163.3
!!!PDT: 2022
!!!PED: Scott Lee Edwards, Stefan Gasch, and Sonja Tröster
!!!YEC: Copyright 2022 Denkmäler der Tonkunst in Österreich
!!!YEM: CC-BY-NC 4.0 (https://creativecommons.org/licenses/by-nc/4.0/legalcode)
!!!EED: Benjamin Ory
!!!EEV: 2024/12/3
!!!verovio: header encoded
!!!header-left: @{PTL}\n@{PED}, eds.\n@{PC#} (@{PDT})&nbsp;\n
!!!header-right: @{COM}
!!!header-center: @{OTL}